public/Vector3.svg

<svg width="13" height="15" viewBox="0 0 13 15" fill="none" xmlns="http://www.w3.org/2000/svg">
<path d="M12.8272 3.05337L9.87261 0.16875C9.8177 0.115192 9.75251 0.0727223 9.68077 0.0437676C9.60904 0.014813 9.53217 -5.94149e-05 9.45455 1.78384e-07H3.54545C3.23202 1.78384e-07 2.93142 0.121566 2.70978 0.337954C2.48815 0.554342 2.36364 0.847827 2.36364 1.15385V2.30769H1.18182C0.86838 2.30769 0.56778 2.42926 0.346146 2.64565C0.124513 2.86203 0 3.15552 0 3.46154V13.8462C0 14.1522 0.124513 14.4457 0.346146 14.662C0.56778 14.8784 0.86838 15 1.18182 15H9.45455C9.76798 15 10.0686 14.8784 10.2902 14.662C10.5119 14.4457 10.6364 14.1522 10.6364 13.8462V12.6923H11.8182C12.1316 12.6923 12.4322 12.5707 12.6539 12.3544C12.8755 12.138 13 11.8445 13 11.5385V3.46154C13.0001 3.38575 12.9848 3.3107 12.9552 3.24066C12.9255 3.17063 12.882 3.10698 12.8272 3.05337ZM9.45455 13.8462H1.18182V3.46154H6.84642L9.45455 6.00793V12.1038C9.45455 12.1082 9.45455 12.1118 9.45455 12.1154C9.45455 12.119 9.45455 12.1226 9.45455 12.1269V13.8462ZM11.8182 11.5385H10.6364V5.76923C10.6364 5.69345 10.6212 5.61839 10.5915 5.54836C10.5619 5.47832 10.5184 5.41468 10.4635 5.36106L7.50898 2.47644C7.45406 2.42288 7.38887 2.38041 7.31714 2.35146C7.24541 2.32251 7.16853 2.30763 7.09091 2.30769H3.54545V1.15385H9.21006L11.8182 3.70024V11.5385ZM7.68182 9.23077C7.68182 9.38378 7.61956 9.53052 7.50875 9.63872C7.39793 9.74691 7.24763 9.80769 7.09091 9.80769H3.54545C3.38874 9.80769 3.23844 9.74691 3.12762 9.63872C3.0168 9.53052 2.95455 9.38378 2.95455 9.23077C2.95455 9.07776 3.0168 8.93102 3.12762 8.82282C3.23844 8.71463 3.38874 8.65385 3.54545 8.65385H7.09091C7.24763 8.65385 7.39793 8.71463 7.50875 8.82282C7.61956 8.93102 7.68182 9.07776 7.68182 9.23077ZM7.68182 11.5385C7.68182 11.6915 7.61956 11.8382 7.50875 11.9464C7.39793 12.0546 7.24763 12.1154 7.09091 12.1154H3.54545C3.38874 12.1154 3.23844 12.0546 3.12762 11.9464C3.0168 11.8382 2.95455 11.6915 2.95455 11.5385C2.95455 11.3855 3.0168 11.2387 3.12762 11.1305C3.23844 11.0223 3.38874 10.9615 3.54545 10.9615H7.09091C7.24763 10.9615 7.39793 11.0223 7.50875 11.1305C7.61956 11.2387 7.68182 11.3855 7.68182 11.5385Z" fill="black"/>
</svg>

<svg version="1.2" xmlns="http://www.w3.org/2000/svg" viewBox="0 0 13 15" width="13" height="15">
	<style>
		.s0 { fill: #3d6a8a } 
	</style>
	<path class="s0" d="m12.83 3.05l-2.96-2.88q-0.08-0.08-0.19-0.13-0.11-0.04-0.23-0.04h-5.9c-0.32 0-0.62 0.12-0.84 0.34-0.22 0.21-0.35 0.51-0.35 0.81v1.16h-1.18c-0.31 0-0.61 0.12-0.83 0.34-0.23 0.21-0.35 0.51-0.35 0.81v10.39c0 0.3 0.12 0.6 0.35 0.81 0.22 0.22 0.52 0.34 0.83 0.34h8.27c0.32 0 0.62-0.12 0.84-0.34 0.22-0.21 0.35-0.51 0.35-0.81v-1.16h1.18c0.31 0 0.61-0.12 0.83-0.34 0.23-0.21 0.35-0.51 0.35-0.81v-8.08q0-0.11-0.04-0.22-0.05-0.11-0.13-0.19zm-3.38 10.8h-8.27v-10.39h5.67l2.6 2.55v6.09q0 0.01 0 0.02 0 0 0 0.01zm2.37-2.31h-1.18v-5.77q0-0.11-0.05-0.22-0.04-0.11-0.13-0.19l-2.95-2.88q-0.08-0.08-0.19-0.13-0.11-0.04-0.23-0.04h-3.54v-1.16h5.66l2.61 2.55zm-4.14-2.31q0 0.24-0.17 0.41-0.18 0.17-0.42 0.17h-3.54q-0.25 0-0.42-0.17-0.17-0.17-0.18-0.41 0.01-0.23 0.18-0.4 0.17-0.17 0.42-0.17h3.54q0.24 0 0.42 0.17 0.17 0.17 0.17 0.4zm0 2.31q0 0.24-0.17 0.41-0.18 0.16-0.42 0.17h-3.54q-0.25-0.01-0.42-0.17-0.17-0.17-0.18-0.41 0.01-0.24 0.18-0.41 0.17-0.16 0.42-0.17h3.54q0.24 0.01 0.42 0.17 0.17 0.17 0.17 0.41z"/>
</svg>
